packages/ffe-icons/icons/open/400/sm/view_kanban.svg

<svg xmlns="http://www.w3.org/2000/svg" height="20" viewBox="0 -960 960 960" width="20"><path d="M216-144q-29.7 0-50.85-21.15Q144-186.3 144-216v-528q0-29.7 21.15-50.85Q186.3-816 216-816h528q29.7 0 50.85 21.15Q816-773.7 816-744v528q0 29.7-21.15 50.85Q773.7-144 744-144H216Zm0-72h528v-528H216v528Zm0-528v528-528Zm108.21 72q-15.21 0-25.71 10.35T288-636v312q0 15.3 10.29 25.65Q308.58-288 323.79-288t25.71-10.35Q360-308.7 360-324v-312q0-15.3-10.29-25.65Q339.42-672 324.21-672Zm312 0q-15.21 0-25.71 10.34T600-636.04v215.76q0 15.28 10.29 25.78 10.29 10.5 25.5 10.5t25.71-10.34q10.5-10.34 10.5-25.62v-215.76q0-15.28-10.29-25.78-10.29-10.5-25.5-10.5Zm-156 0q-15.21 0-25.71 10.35T444-636v120q0 15.3 10.29 25.65Q464.58-480 479.79-480t25.71-10.35Q516-500.7 516-516v-120q0-15.3-10.29-25.65Q495.42-672 480.21-672Z"/></svg>

<svg xmlns="http://www.w3.org/2000/svg" height="20" viewBox="0 -960 960 960" width="20"><path d="M216-144q-29.7 0-50.85-21.15Q144-186.3 144-216v-528q0-29.7 21.15-50.85Q186.3-816 216-816h528q29.7 0 50.85 21.15Q816-773.7 816-744v528q0 29.7-21.15 50.85Q773.7-144 744-144H216Zm0-72h528v-528H216v528Zm0-528v528-528Zm108.211 72Q309-672 298.5-661.65 288-651.3 288-636v312q0 15.3 10.289 25.65 10.29 10.35 25.5 10.35Q339-288 349.5-298.35 360-308.7 360-324v-312q0-15.3-10.289-25.65-10.29-10.35-25.5-10.35Zm312 0Q621-672 610.5-661.662 600-651.323 600-636.04v215.757Q600-405 610.289-394.5q10.29 10.5 25.5 10.5Q651-384 661.5-394.338 672-404.677 672-419.96v-215.757Q672-651 661.711-661.5q-10.29-10.5-25.5-10.5Zm-156 0Q465-672 454.5-661.65 444-651.3 444-636v120q0 15.3 10.289 25.65 10.29 10.35 25.5 10.35Q495-480 505.5-490.35 516-500.7 516-516v-120q0-15.3-10.289-25.65-10.29-10.35-25.5-10.35Z"/></svg>
